X:1
T:My Father, How Long
M:4/4
L:1/4
K:F
 F| A F A- c| B2 z B| A F A2| G2 z F| A c d2| c2 z A| F/2 A3/2 A3/2 G/2|\
 F2 z| F/2G/2| A2 A2| B2 z B/2B/2| A/2- F3/2 F/2- A3/2| G2 z F/2F/2|\
 A/2- c3/2 d2| c2 z A| F/2 A3/2 A3/2 G/2| F2 z||
